X:1
T:Title
%%score { ( 1 3 ) | ( 2 4 ) }
L:1/8
M:4/4
K:Eb
V:1 treble nm="Grand Piano"
V:3 treble 
V:2 bass 
V:4 bass 
V:1
 z4 z2[Q:1/4=100] EF | G2 G[FA] [GB]2 EG | [DF]6 [DF][EG] | [FA]2 [FA][GB] [Ac]2 [DF][DB] | %4
 [EB]6 [EG][GB] | [Ge]2 GG G2 [EA][EB] | [Ec]6 [CEF][CEF] | [B,DB]2 DD D2 EF |[M:3/4] E6 | %9
[M:1/4] GA |[M:4/4] B6 z2 | e6 z2 | [GB]2 [GB][GB] [Ac][GB] [EG]2 | [DF]6 z2 | B6 z2 | %15
[M:9/8] e6- e z z | [GB]2 G E[DF][DF] [DB]3 |[M:3/4] E6 |] %18
V:2
 z4 z2 [E,G,][E,A,] | [E,B,E]2 [E,B,E][E,B,] [E,B,]2 [E,G,][E,B,E] | [B,,B,]6 [B,,B,][B,,B,] | %3
 [B,,B,]2 [B,,B,][B,,B,] [B,,B,]2 [B,,B,][B,,F,] | [E,G,]6 [E,B,][E,B,] | %5
 [E,B,]2 [E,B,E][E,B,E] [E,B,E]2 [C,A,][B,,G,] | [A,,A,]6 A,,A,, | %7
 B,,2 [B,,A,B,][B,,G,B,] [B,,F,B,]2 [B,,G,B,][B,,A,B,] |[M:3/4] [E,G,B,]6 |[M:1/4][K:treble] EF | %10
[M:4/4] G6[K:bass][K:treble] z2 | G2[K:bass] [E,C][E,C] [E,B,]2 [E,G,][E,B,E] | %12
 [E,E]2 [E,E][E,E] [E,E][E,E] [E,B,]2 | [B,,B,]2 B,,B,, B,,2[K:treble] EF | %14
 G6[K:bass][K:treble] z2 |[M:9/8] G2[K:bass] [E,C] [E,C] [E,B,]2- [E,B,][E,G,][E,B,E] | %16
 [E,E]2 [E,B,E] [E,G,][B,,B,][B,,B,] [B,,A,]3 |[M:3/4] [E,G,]6 |] %18
V:3
 x8 | x8 | x8 | x8 | x8 | x8 | x8 | x8 |[M:3/4] x6 |[M:1/4] x2 |[M:4/4] z2 B,B, B,2 GB | %11
 z2 AA G2 EG | x8 | z2 B,B, B,2 GA | z2 B,B, B,2 GB |[M:9/8] z2 A A G2- GEG | x9 |[M:3/4] x6 |] %18
V:4
 x8 | x8 | x8 | x8 | x8 | x8 | x8 | x8 |[M:3/4] x6 |[M:1/4][K:treble] x2 | %10
[M:4/4] z2[K:bass] E,E, E,2[K:treble] EG | x2[K:bass] x6 | x8 | x6[K:treble] x2 | %14
 z2[K:bass] E,E, E,2[K:treble] EG |[M:9/8] x2[K:bass] x7 | x9 |[M:3/4] x6 |] %18

